Numix-Light/16/status/indicator-keyboard-Ur-4.svg

<?xml version="1.0" encoding="UTF-8" standalone="no"?>
<svg
   xmlns:dc="http://purl.org/dc/elements/1.1/"
   xmlns:cc="http://creativecommons.org/ns#"
   xmlns:rdf="http://www.w3.org/1999/02/22-rdf-syntax-ns#"
   xmlns:svg="http://www.w3.org/2000/svg"
   xmlns="http://www.w3.org/2000/svg"
   xmlns:sodipodi="http://sodipodi.sourceforge.net/DTD/sodipodi-0.dtd"
   xmlns:inkscape="http://www.inkscape.org/namespaces/inkscape"
   viewBox="0 0 16 16"
   id="svg2"
   version="1.1"
   inkscape:version="0.91 r13725"
   sodipodi:docname="indicator-keyboard-Ur-4.svg">
  <metadata
     id="metadata14">
    <rdf:RDF>
      <cc:Work
         rdf:about="">
        <dc:format>image/svg+xml</dc:format>
        <dc:type
           rdf:resource="http://purl.org/dc/dcmitype/StillImage" />
      </cc:Work>
    </rdf:RDF>
  </metadata>
  <defs
     id="defs12" />
  <sodipodi:namedview
     pagecolor="#ffffff"
     bordercolor="#666666"
     borderopacity="1"
     objecttolerance="10"
     gridtolerance="10"
     guidetolerance="10"
     inkscape:pageopacity="0"
     inkscape:pageshadow="2"
     inkscape:window-width="640"
     inkscape:window-height="480"
     id="namedview10"
     showgrid="false"
     inkscape:zoom="14.75"
     inkscape:cx="8"
     inkscape:cy="8"
     inkscape:window-x="65"
     inkscape:window-y="24"
     inkscape:window-maximized="0"
     inkscape:current-layer="svg2" />
  <path
     style="fill:#353535;fill-opacity:1"
     d="M 1.5996094 0 C 0.71320937 2.9605947e-16 0 0.71320937 0 1.5996094 L 0 14.400391 C 2.9605947e-16 15.286791 0.71320937 16 1.5996094 16 L 14.400391 16 C 15.286791 16 16 15.286791 16 14.400391 L 16 1.5996094 C 16 0.71320937 15.286791 0 14.400391 0 L 1.5996094 0 z M 2.1503906 4.859375 L 2.7636719 4.859375 L 2.7636719 8.7011719 C 2.7636719 9.0431719 2.8009063 9.34175 2.8789062 9.59375 C 2.9629062 9.83975 3.0786563 10.043078 3.2226562 10.205078 C 3.3666562 10.367078 3.5401406 10.486453 3.7441406 10.564453 C 3.9481406 10.642453 4.1757344 10.681641 4.4277344 10.681641 C 4.6797344 10.681641 4.9073281 10.642453 5.1113281 10.564453 C 5.3153281 10.486453 5.4888125 10.367078 5.6328125 10.205078 C 5.7768125 10.043078 5.8887969 9.83975 5.9667969 9.59375 C 6.0507969 9.34175 6.0917969 9.0431719 6.0917969 8.7011719 L 6.0917969 4.859375 L 6.7050781 4.859375 L 6.7050781 8.7832031 C 6.7050781 9.1252031 6.662125 9.4460938 6.578125 9.7460938 C 6.500125 10.040094 6.3714063 10.297531 6.1914062 10.519531 C 6.0114062 10.741531 5.7744687 10.916969 5.4804688 11.042969 C 5.1924687 11.168969 4.8417344 11.230469 4.4277344 11.230469 C 4.0137344 11.230469 3.6592344 11.168969 3.3652344 11.042969 C 3.0772344 10.916969 2.8440625 10.741531 2.6640625 10.519531 C 2.4840625 10.297531 2.3515781 10.040094 2.2675781 9.7460938 C 2.1895781 9.4460938 2.1503906 9.1252031 2.1503906 8.7832031 L 2.1503906 4.859375 z M 9.84375 6.3535156 C 10.03575 6.3535156 10.214812 6.3684375 10.382812 6.3984375 C 10.556812 6.4284375 10.676187 6.4582812 10.742188 6.4882812 L 10.625 6.9921875 C 10.577 6.9681875 10.478125 6.9439219 10.328125 6.9199219 C 10.184125 6.8899219 9.9939063 6.875 9.7539062 6.875 C 9.5019062 6.875 9.296625 6.8936875 9.140625 6.9296875 C 8.990625 6.9656875 8.89175 6.9955312 8.84375 7.0195312 L 8.84375 11.095703 L 8.2597656 11.095703 L 8.2597656 6.6582031 C 8.4097656 6.5922031 8.6168594 6.5269375 8.8808594 6.4609375 C 9.1448594 6.3889375 9.46575 6.3535156 9.84375 6.3535156 z M 12.949219 8.8417969 L 13.345703 8.8417969 L 13.345703 11.486328 L 13.849609 11.486328 L 13.849609 11.796875 L 13.345703 11.796875 L 13.345703 12.896484 L 12.972656 12.896484 L 12.972656 11.796875 L 11.134766 11.796875 L 11.134766 11.5625 C 11.204966 11.3753 11.302934 11.163688 11.427734 10.929688 C 11.556434 10.695687 11.699475 10.456638 11.859375 10.210938 C 12.019275 9.9652374 12.193659 9.7261874 12.380859 9.4921875 C 12.568059 9.2542875 12.758119 9.0367969 12.949219 8.8417969 z M 12.972656 9.2695312 C 12.836156 9.4099313 12.697041 9.5706063 12.556641 9.7539062 C 12.416241 9.9372063 12.281044 10.129225 12.152344 10.328125 C 12.027544 10.523125 11.909981 10.719069 11.800781 10.917969 C 11.691581 11.116869 11.601444 11.306928 11.527344 11.486328 L 12.972656 11.486328 L 12.972656 9.2695312 z "
     id="path4" />
</svg>

<svg xmlns="http://www.w3.org/2000/svg" viewBox="0 0 16 16">
 <path d="m 1.6 0 c -0.886 0 -1.6 0.713 -1.6 1.6 l 0 12.801 c 0 0.886 0.713 1.6 1.6 1.6 l 12.801 0 c 0.886 0 1.6 -0.713 1.6 -1.6 l 0 -12.801 c 0 -0.886 -0.713 -1.6 -1.6 -1.6 l -12.801 0 z m 0.551 4.859 l 0.613 0 l 0 3.842 c 0 0.342 0.037 0.641 0.115 0.893 c 0.084 0.246 0.2 0.449 0.344 0.611 c 0.144 0.162 0.317 0.281 0.521 0.359 c 0.204 0.078 0.432 0.117 0.684 0.117 c 0.252 0 0.48 -0.039 0.684 -0.117 c 0.204 -0.078 0.377 -0.197 0.521 -0.359 c 0.144 -0.162 0.256 -0.365 0.334 -0.611 c 0.084 -0.252 0.125 -0.551 0.125 -0.893 l 0 -3.842 l 0.613 0 l 0 3.924 c 0 0.342 -0.043 0.663 -0.127 0.963 c -0.078 0.294 -0.207 0.551 -0.387 0.773 c -0.18 0.222 -0.417 0.397 -0.711 0.523 c -0.288 0.126 -0.639 0.188 -1.053 0.188 c -0.414 0 -0.769 -0.061 -1.063 -0.188 c -0.288 -0.126 -0.521 -0.301 -0.701 -0.523 c -0.18 -0.222 -0.312 -0.479 -0.396 -0.773 c -0.078 -0.3 -0.117 -0.621 -0.117 -0.963 l 0 -3.924 z m 7.693 1.494 c 0.192 0 0.371 0.015 0.539 0.045 c 0.174 0.03 0.293 0.06 0.359 0.09 l -0.117 0.504 c -0.048 -0.024 -0.147 -0.048 -0.297 -0.072 c -0.144 -0.03 -0.334 -0.045 -0.574 -0.045 c -0.252 0 -0.457 0.019 -0.613 0.055 c -0.15 0.036 -0.249 0.066 -0.297 0.09 l 0 4.076 l -0.584 0 l 0 -4.437 c 0.15 -0.066 0.357 -0.131 0.621 -0.197 c 0.264 -0.072 0.585 -0.107 0.963 -0.107 z m 3.105 2.488 l 0.396 0 l 0 2.645 l 0.504 0 l 0 0.311 l -0.504 0 l 0 1.1 l -0.373 0 l 0 -1.1 l -1.838 0 l 0 -0.234 c 0.07 -0.187 0.168 -0.399 0.293 -0.633 c 0.129 -0.234 0.272 -0.473 0.432 -0.719 c 0.16 -0.246 0.334 -0.485 0.521 -0.719 c 0.187 -0.238 0.377 -0.455 0.568 -0.65 z m 0.023 0.428 c -0.136 0.14 -0.276 0.301 -0.416 0.484 c -0.14 0.183 -0.276 0.375 -0.404 0.574 c -0.125 0.195 -0.242 0.391 -0.352 0.59 c -0.109 0.199 -0.199 0.389 -0.273 0.568 l 1.445 0 l 0 -2.217 z" style="fill:#353535;fill-opacity:1"/>
</svg>
